X: 1214
T: Alf Cosgrove's Varsoviana
B: australian traditional tunes wiki
M:3/4
L:1/8
R: Varsovienne
Q: 1/4=100
K:D
V:1 
Ad>e|:"D"f2f2f<g|"G"B4A>c|"A7"e2eg f>e|"D"d2A2A>d|f2f2f<g|"G"B4A>c|"A7"e2eg f>e|"D"d2-d>d (3cBA|
"D"F2F2E>D|F<A A>d (3cBA|F2E2D>F|A2A>d (3cBA|"D"F2F2E>D| F<B"G" B2 A>c|"A7"e2eg f>e|"D"d4z2:|
% abcbook-tune_id 6342d53a9855f30d92b71aac


% abcbook-boost 0
% abcbook-tablature 
% abcbook-transpose 
% abcbook-lastupdated 1665324354539
% abcbook-soundfonts 
% abcbook-repeats 1
% NFF Book 2017

